public/MobilePreview/tapwater.svg

<svg width="16" height="16" viewBox="0 0 16 16" fill="none" xmlns="http://www.w3.org/2000/svg">
<g clip-path="url(#clip0_3532_3188)">
<path d="M8 15C5.23958 15 3 12.6484 3 9.75C3 7.25625 6.39063 2.57773 7.33854 1.31992C7.49479 1.11484 7.72656 1 7.97656 1H8.02344C8.27344 1 8.50521 1.11484 8.66146 1.31992C9.60937 2.57773 13 7.25625 13 9.75C13 12.6484 10.7604 15 8 15ZM5.5 10.1875C5.5 9.94687 5.3125 9.75 5.08333 9.75C4.85417 9.75 4.66667 9.94687 4.66667 10.1875C4.66667 11.8801 5.97135 13.25 7.58333 13.25C7.8125 13.25 8 13.0531 8 12.8125C8 12.5719 7.8125 12.375 7.58333 12.375C6.43229 12.375 5.5 11.3961 5.5 10.1875Z" fill="#444444"/>
</g>
<defs>
<clipPath id="clip0_3532_3188">
<rect width="10" height="14" fill="white" transform="translate(3 1)"/>
</clipPath>
</defs>
</svg>

<svg xmlns="http://www.w3.org/2000/svg" width="16" height="16" fill="none"><g clip-path="url(#a)"><path fill="#444" d="M8 15c-2.76 0-5-2.352-5-5.25 0-2.494 3.39-7.172 4.339-8.43A.796.796 0 0 1 7.977 1h.046c.25 0 .482.115.638.32C9.61 2.578 13 7.256 13 9.75 13 12.648 10.76 15 8 15Zm-2.5-4.813a.429.429 0 0 0-.417-.437.429.429 0 0 0-.416.438c0 1.692 1.304 3.062 2.916 3.062.23 0 .417-.197.417-.438a.429.429 0 0 0-.417-.437c-1.15 0-2.083-.979-2.083-2.188Z"/></g><defs><clipPath id="a"><path fill="#fff" d="M3 1h10v14H3z"/></clipPath></defs></svg>
